X: 1
T: 1A. BUFFALO GALS
T: Hagantown Gals
B: Sam Bayard, "Hill Country Tunes" 1944 #1A
S: Played by Irvin Yaugher Jr., Mt. Independence, Fayette County, PA, Oct 19 1943.
R: reel
Z: 2010 John Chambers <jc:trillian.mit.edu>
M: C|
L: 1/8
K: G
EF |\
 G2A2 B2^/c2 | eddB G2B^/c | d2^/cB A2Ac | e2d2- d2EF |
 G2A2 B2^/c2 | eddB G2B^/c | d2^/cB A2F2 | A2G2- G2 || z2 |
Jg2fg e2d2 | eddB G2z2 | {B}d2^/cB A2Ac | e2d2- d2ef |
 g2fg e2d2 | e2dB G2B^/c | d2^/cB A2F2 | A2G2- G2 |]

%%sep 2 1 500
%%sep 1 1 500

